X:639
T:Bumper Squire Jones
C:O'Carolan
B:O'Neill's 639
Z: 1997 by John Chambers <jc@trillian.mit.edu>
N:"Spirited"
M:6/8
L:1/8
K:D
A \
|GFDD D2E|GFDD D2E|F/G/A.F G/A/B.A|BEE G2A|
|FDD d2e|eg/f/e/d/ edc|dBe cAc|dDD D2||
a \
|af/g/a/f/ df/g/a/f/|bg/a/b/g/ eg/a/b/g/|afd e/f/g.e|cAA A2g|
|f/g/a.f geg|af/g/a/f/ geg|fed cBc|dDD D2|]
